X:1
T:Baby Moses
T:Herman von Müller, 1912
T:Baby Moses
T:Public Domain
T:Public Domain
C:Herman von M&#252;ller, 1912
Z:Public Domain
%%score ( 1 2 ) ( 3 4 ) ( 5 6 )
L:1/8
M:6/4
K:Eb
V:1 treble 
V:2 treble 
V:3 treble 
V:4 treble 
V:5 bass 
V:6 bass 
V:1
 z12 |: z12 |"^Solo, or Selected Voices" B4 c2 B2 G2 E2 | F6 E6 |"^All" c2 A2 G2 F4 G2 | F12 | %6
w: ||1.~Who will take lit- tle|ba- by?|“I,” said the wa- ter|deep.|
w: ||2.~Who will hide lit- tle|ba- by?|“We,” said the rush- es|tall.|
w: ||3.~Who will watch o’er the|ba- by?|Mir- i- am whis- pers,|“I.”|
w: ||4.~Who will guard lit- tle|ba- by?|Out on the wa- ters|blue?|
 G2 A2 B2 c4 AG | (F2 G2) A2 B4 A2 | (G2 E2) G2 F2 E2 F2 | E12 :| x12 | x12 |] %12
w: “Ba- by will float in his|cra- * dle boat And|I * shall rock him to|sleep.”|||
w: “Safe- ly we’ll hide the ba-|by * in- side, That|nobo- * dy sees him at|all.”|||
w: “I’m sure to hear if the|ba- * by dear Gives|even * a ti- ny, soft|cry.”|||
w: Si- lent- ly sleep, ba- by,|safe- * ly sleep, For|God * will take care of|you.|||
V:2
 x12 |: x12 | x12 | x12 | x12 | x12 | x12 | x12 | x12 | E12 :| x12 | x12 |] %12
V:3
 [G,B,E]12 |: [B,EG]12 | [EB]4 [Ec]2 B2 G2 [CE]2 | ([A,C]4 D2) [G,E]6 | c2 A2 [EG]2 [EF]4 [EG]2 | %5
 (E4 D2 [DF]6) | G2 A2 [EB]2 c4 AG | (F2 G2) [FA]2 [EB]4 [DA]2 | %8
 (G2 E2) [EG]2 [A,F]2 [G,E]2 [A,F]2 | [G,B,E]12 :| [B,EG]12 | [G,B,E]12 |] %12
V:4
 x12 |: x12 | x6 [B,E]4 x2 | F6 x6 | D4 x8 | F6 x6 | E4 E6 x2 | D4 x8 | E4 x8 | x12 :| x12 | x12 |] %12
V:5
 (G,,4 B,,2 E,4 B,,2) |: (E,,4 B,,2 E,4 B,,2) | [E,G,]4 [A,,A,]2 G,,4 [C,G,]2 | %3
 ([F,,F,]4 B,,2) (E,,4 E,2) | [F,A,]4 [G,B,]2 [A,C]4 =A,2 | (B,4 [F,=A,]2 B,4 B,,2) | %6
 E,2 F,2 G,2 [A,,A,]4 z2 | [A,B,]6 [G,B,]4 [B,,B,]2 | (B,2 G,2) [G,,B,]2 B,,4 B,,2 | %9
 (E,,4 B,,2 E,4 B,,2) :| (E,,4 B,,2 E,4 B,,2) | [E,,E,]12 |] %12
V:6
 x12 |: x12 | x12 | x12 | x12 | x12 | E,6 x6 | x12 | E,4 x8 | x12 :| x12 | x12 |] %12

